X:1
T:Se m'uccidi crudele
T:Luca Marenzio
T:Source : Il quinto libro delle Villanelle a tre voci---Venetia---Herede di G.Scotto---1587. Editor : André Vierendeels (04/06/17).
T:Notes : Original clefs : C1, C2, F4 Editorial accidentals above the staff Music collected by Attilio Gualieri 
T:Se m'uccidi crudele
T:©
T:©
C:Luca Marenzio
Z:©
%%score [ 1 2 3 ]
L:1/8
Q:1/4=120
M:4/4
K:C
V:1 treble nm="Soprano" snm="S"
V:2 treble nm="Alto" snm="A"
V:3 bass nm="Bass" snm="B"
V:1
 d6 d2 | d4 c2 B2 | A4 A2 d2 | e3 d c2 B2 | A4 A4 :: c2 c2 c4 | c2 d2 e4- | e4 c2 e2 | %8
w: Se m'uc-|ci- di cru-|de- le, per-|ch'io ti son fe-|de- le,|e se re-|sti con- ten-|* ta, d'ha-|
w: La leg-|ge vol sia'uc-|ci- so, chi|del spir- to di-|vi- so,|al- trui hà|fat- to'in ter-|* ra, con|
 e2 e2 d2 c2 | d4 d4 | z4 A2 B2 | c2 G4 F2 | E4 E4 | z2 e2 e4- | e2 d2 c2 B2 | ABcd e3 d/c/ | %16
w: ver quest' al- ma|spen- ta,|di che|poi ti dor-|ra- i,|cru- del|_ s'al- cun do-|lor _ _ _ _ _ _|
w: co- s'in- giu- sta|guer- ra,|e tu|cru- del con-|sen- ti,|d'uc- ci-|* der' un che|t'a- * * * ma _ _|
 B2 G2 GABc | d2 B2 A4 | G8 :| %19
w: _ di- cio _ _ _|_ non ha-|i|
w: _ e non _ _ _|_ ti pen-|ti.|
V:2
 B6 B2 | B4 A2 G2 | ^F4 F2 G2 | G3 G E2 G2 | ^F4 F4 :: A2 A2 A4 | A2 B2 c4- | c4 G2 c2 | %8
w: Se m'uc-|ci- di cru-|de- le, per-|ch'io ti son fe-|de- le,|e se re-|sti con- ten-|* ta, d'ha-|
w: Fra'o- gni|vir- tu la|fe- de, pr-|fia- ta'es- ser si|ve- de,|e'al ne- mi-|co'e'a l'a- man-|* te, giu-|
 c2 c2 B2 A2 | B4 B4 | z4 C2 B,2 | A,2 B,4 B,2 | C4 C4 | z2 c2 c4- | c2 B2 A2 G2 | F2 E2 G3 F/E/ | %16
w: ver quast' al- ma|spen- ta,|di che|poi ti dor-|ra- i,|cru- del|_ s'al- cun do-|lor di cio _ _|
w: sto'è l'es- ser co-|stan- te,|tu'in che|sti- ma sa-|ra- i,|s'il man-|* car di tua|fè si leg- * *|
 D4 E4 | ^F2 G4 F2 | G8 :| %19
w: _ non|ha- * *|i.|
w: * gier|fa- * *|i.|
V:3
 G,6 G,2 | G,4 F,2 E,2 | D,4 D,2 B,,2 | C,3 B,, C,2 G,,2 | D,4 D,4 ::"^-natural" F,2 F,2 F,4 | %6
w: Se m'uc-|ci- di cru-|de- le, per|ch'io ti son fe-|de- le,|e se re-|
w: S'io ti|se- guo mi|fug- gi, se|t'a- mo mi di-|strug- gi,|ma s'è giu-|
 F,2 D,2 C,4- | C,4 C,2 C,2 | C,2 C,2 G,2 A,2 | G,4 G,4 | D,2 E,2 F,4- | F,2 E,4 D,2 | C,4 C,2 C2 | %13
w: sti con- ten-|* ta, d'ha-|ver quest' al- ma|spen- ta,|di che poi|_ ti dor-|ra- i, cru-|
w: sto che mo-|* ra, chi|t'a- ma'e chi t'a-|do- ra,|cre- di gia-|* mai non|fi- a, ch'a|
 C6 B,2 | A,6 E,2 | F,2 C,2 C,D,E,F, | G,4 E,4 | D,8 | G,,8 :| %19
w: del s'al-|cun do-|lor di cio _ _ _|_ non|ha-|i.|
w: ve- der|tar- di|la ven- det- * * *|* ta|mi-|a.|

